X:184
T:Dan Dan
M:C|
L:1/8
Q:1/4=120
K:G
A2G2|\
F4 G2E2|D2d'2 A2G2|F4 G2E2|D2d'2 z2z2|
dd/d/BB A2d'2|dd/d/BB A2d'2|dd/d/BB A2d'A|
d4 d2B2|B4 z2z2|AB2A FDd'F|E4 F2E2|D2d'2||
